!!!OTL: Waise und Stiefmutter Regina ging in Garte
!!!ARE: Europa, Mitteleuropa, Schweiz
!!!YOR: 5, S. 299
!!    ????
!!!SCT: Q1116D
!!!YEM: Copyright 1995, estate of Helmut Schaffrath.
**kern
*ICvox
*Ivox
*M6/8
*k[f#]
*G:
{8d
=1
4g
8B
4e
8d
=2
8d
8c
4.r}
{8c
=3
4a
8c
4e
16d
16d
=4
[4.B
4B]}
{8d
=5
4b
8a
4g
8f#
=6
8f#
8e
4.r}
{8e
=7
4d
16d
16g
8f#
8e
8f#
=8
[4.g
4g]}
{8d
=9
4b
8a
4g
8f#
=10
8f#
8e
4.r}
{8e
=11
4d
16d
16g
8g
8e
8f#
=12
[4.g
4g]}
==
!!!AGN: ???
!! Melodievergleich zu Q0116, anderes Lied.
!!!ONB: ESAC (Essen Associative Code) Database: BALLADE
!!!AMT: compound duple
!!!AIN: vox
!!!EED: Helmut Schaffrath
!!!EEV: 1.0
*-
